public/icons/icon-activity.svg

<svg width="79" height="73" viewBox="0 0 79 73" fill="none" xmlns="http://www.w3.org/2000/svg">
<path d="M39.0744 3.79944L14.2 10.4645C5.13534 12.8934 1.37552 19.4049 3.80415 28.4687L10.4623 53.3171C12.8909 62.3809 19.4028 66.1401 28.4674 63.7112L53.3418 57.0461C62.4065 54.6173 66.1426 48.1121 63.714 39.0484L57.0559 14.1999C54.6272 5.13613 48.139 1.37058 39.0744 3.79944Z" fill="#556AF1"/>
<g opacity="0.5" filter="url(#filter0_f)">
<path d="M37.5001 14.8062L21.0589 19.2116C15.0675 20.817 12.5385 24.9571 14.0662 30.6588L18.2547 46.2903C19.7825 51.9921 24.0427 54.313 30.0341 52.7076L46.4753 48.3022C52.4667 46.6968 54.9801 42.5609 53.4523 36.8591L49.2638 21.2277C47.736 15.5259 43.4915 13.2008 37.5001 14.8062Z" fill="#173DE3"/>
</g>
<g filter="url(#filter1_b)">
<path d="M56.3992 16.8711H32.5025C23.1588 16.8711 16.8745 23.431 16.8745 33.1881V55.7067C16.8745 65.4363 23.1588 71.9961 32.5025 71.9961H56.3992C65.7429 71.9961 71.9995 65.4363 71.9995 55.7067V33.1881C71.9995 23.431 65.7429 16.8711 56.3992 16.8711Z" fill="#556AF1" fill-opacity="0.35"/>
<path d="M56.3992 16.4986H32.5025C27.7402 16.4986 23.7322 18.1723 20.9156 21.113C18.1003 24.0522 16.502 28.2288 16.502 33.1881V55.7067C16.502 60.6525 18.1004 64.8221 20.9157 67.7578C23.7323 70.6949 27.7402 72.3687 32.5025 72.3687H56.3992C61.1615 72.3687 65.1627 70.6948 67.9724 67.7575C70.7808 64.8216 72.3721 60.652 72.3721 55.7067V33.1881C72.3721 28.2292 70.781 24.0527 67.9726 21.1133C65.1628 18.1724 61.1615 16.4986 56.3992 16.4986Z" stroke="url(#paint0_linear)" stroke-width="0.745048" stroke-linecap="round" stroke-linejoin="round"/>
</g>
<g filter="url(#filter2_b)">
<path d="M74.923 12.8242C72.6863 12.8242 70.873 14.6375 70.873 16.8742C70.873 19.111 72.6863 20.9242 74.923 20.9242C77.1598 20.9242 78.9731 19.111 78.9731 16.8742C78.9731 15.8001 78.5464 14.77 77.7868 14.0104C77.0273 13.2509 75.9972 12.8242 74.923 12.8242Z" fill="url(#paint1_linear)"/>
</g>
<g filter="url(#filter3_bd)">
<path d="M58.859 39.5549L50.982 49.7194C50.6506 50.1612 50.1536 50.4495 49.6051 50.5179C49.0565 50.5864 48.5037 50.4292 48.0736 50.0824L40.5118 44.1531L33.7013 52.9624C33.2081 53.7455 32.2475 54.0974 31.3641 53.8186C30.4807 53.5397 29.8973 52.7004 29.9446 51.7765V51.7765C29.9405 51.3194 30.0946 50.8748 30.3808 50.5181L38.5244 40.0147C38.8518 39.5765 39.3422 39.2884 39.8849 39.2155C40.4276 39.1427 40.9768 39.2912 41.4085 39.6275L48.9704 45.581L55.6112 37.038C55.9305 36.5975 56.415 36.3051 56.954 36.2276C57.4929 36.15 58.0404 36.294 58.4712 36.6266C59.3612 37.3226 59.5333 38.6004 58.859 39.5065V39.5549Z" fill="url(#paint2_linear)"/>
<path d="M50.8642 49.6281L50.8642 49.6281L50.8628 49.63C50.5557 50.0394 50.095 50.3066 49.5866 50.3701C49.0782 50.4335 48.5658 50.2878 48.1672 49.9664L48.1656 49.9652L40.6037 44.0359L40.4857 43.9433L40.3939 44.062L33.5834 52.8712L33.579 52.8769L33.5752 52.883C33.1181 53.6087 32.2279 53.935 31.409 53.6765C30.5902 53.418 30.0496 52.6402 30.0934 51.7841L29.9446 51.7765L30.0936 51.7752C30.0898 51.3524 30.2323 50.9413 30.4971 50.6113L30.4971 50.6113L30.4986 50.6094L38.6421 40.106L38.6421 40.106L38.6437 40.1039C38.9472 39.6978 39.4017 39.4307 39.9047 39.3632C40.4076 39.2957 40.9165 39.4333 41.3166 39.7448C41.3167 39.7449 41.3168 39.745 41.317 39.7451L48.8782 45.6981L48.996 45.7908L49.088 45.6725L55.7289 37.1294L55.729 37.1295L55.7319 37.1254C56.0275 36.7176 56.4761 36.4469 56.9752 36.3751C57.4741 36.3033 57.9809 36.4365 58.3797 36.7442C59.2058 37.3905 59.3653 38.5765 58.7394 39.4175L58.7099 39.4571V39.5039L50.8642 49.6281Z" stroke="url(#paint3_linear)" stroke-width="0.298019"/>
</g>
<defs>
<filter id="filter0_f" x="0.96505" y="1.64278" width="65.5903" height="64.2267" filterUnits="userSpaceOnUse" color-interpolation-filters="sRGB">
<feFlood flood-opacity="0" result="BackgroundImageFix"/>
<feBlend mode="normal" in="SourceGraphic" in2="BackgroundImageFix" result="shape"/>
<feGaussianBlur stdDeviation="6.3329" result="effect1_foregroundBlur"/>
</filter>
<filter id="filter1_b" x="-1.75175" y="-1.75614" width="92.3774" height="92.3774" filterUnits="userSpaceOnUse" color-interpolation-filters="sRGB">
<feFlood flood-opacity="0" result="BackgroundImageFix"/>
<feGaussianBlur in="BackgroundImage" stdDeviation="8.94057"/>
<feComposite in2="SourceAlpha" operator="in" result="effect1_backgroundBlur"/>
<feBlend mode="normal" in="SourceGraphic" in2="effect1_backgroundBlur" result="shape"/>
</filter>
<filter id="filter2_b" x="59.6973" y="1.6485" width="30.4514" height="30.4514" filterUnits="userSpaceOnUse" color-interpolation-filters="sRGB">
<feFlood flood-opacity="0" result="BackgroundImageFix"/>
<feGaussianBlur in="BackgroundImage" stdDeviation="5.58786"/>
<feComposite in2="SourceAlpha" operator="in" result="effect1_backgroundBlur"/>
<feBlend mode="normal" in="SourceGraphic" in2="effect1_backgroundBlur" result="shape"/>
</filter>
<filter id="filter3_bd" x="18.7662" y="25.0313" width="51.6799" height="40.0577" filterUnits="userSpaceOnUse" color-interpolation-filters="sRGB">
<feFlood flood-opacity="0" result="BackgroundImageFix"/>
<feGaussianBlur in="BackgroundImage" stdDeviation="5.58786"/>
<feComposite in2="SourceAlpha" operator="in" result="effect1_backgroundBlur"/>
<feColorMatrix in="SourceAlpha" type="matrix" values="0 0 0 0 0 0 0 0 0 0 0 0 0 0 0 0 0 0 127 0"/>
<feOffset dx="3.72524" dy="3.72524"/>
<feGaussianBlur stdDeviation="3.72524"/>
<feColorMatrix type="matrix" values="0 0 0 0 0.572549 0 0 0 0 0.588235 0 0 0 0 1 0 0 0 0.5 0"/>
<feBlend mode="normal" in2="effect1_backgroundBlur" result="effect2_dropShadow"/>
<feBlend mode="normal" in="SourceGraphic" in2="effect2_dropShadow" result="shape"/>
</filter>
<linearGradient id="paint0_linear" x1="25.6495" y1="23.2932" x2="60.8134" y2="66.8446" gradientUnits="userSpaceOnUse">
<stop stop-color="white" stop-opacity="0.25"/>
<stop offset="1" stop-color="white" stop-opacity="0"/>
</linearGradient>
<linearGradient id="paint1_linear" x1="75.5194" y1="17.4166" x2="68.402" y2="20.8773" gradientUnits="userSpaceOnUse">
<stop stop-color="#9296FF"/>
<stop offset="1" stop-color="#173DE3"/>
</linearGradient>
<linearGradient id="paint2_linear" x1="57.191" y1="39.4044" x2="24.5822" y2="41.1655" gradientUnits="userSpaceOnUse">
<stop stop-color="#E8F5FF"/>
<stop offset="1" stop-color="#E8F5FF" stop-opacity="0.2"/>
</linearGradient>
<linearGradient id="paint3_linear" x1="34.6105" y1="38.2698" x2="43.7121" y2="56.9415" gradientUnits="userSpaceOnUse">
<stop stop-color="white" stop-opacity="0.25"/>
<stop offset="1" stop-color="white" stop-opacity="0"/>
</linearGradient>
</defs>
</svg>

<svg viewBox="0 0 79 73" fill="none" xmlns="http://www.w3.org/2000/svg"><path d="M39.074 3.8 14.2 10.463c-9.065 2.43-12.824 8.94-10.396 18.005l6.658 24.848c2.429 9.064 8.94 12.823 18.005 10.394l24.875-6.665c9.065-2.429 12.8-8.934 10.372-17.998L57.056 14.2C54.627 5.136 48.139 1.37 39.074 3.8z" fill="#556AF1"/><g opacity=".5" filter="url(#a)"><path d="M37.5 14.806 21.06 19.212c-5.992 1.605-8.52 5.745-6.993 11.447l4.189 15.631c1.527 5.702 5.788 8.023 11.78 6.418l16.44-4.406c5.992-1.605 8.505-5.741 6.977-11.443l-4.188-15.631C47.736 15.526 43.49 13.2 37.5 14.806z" fill="#173DE3"/></g><g filter="url(#b)"><path d="M56.4 16.871H32.501c-9.343 0-15.628 6.56-15.628 16.317v22.519c0 9.73 6.285 16.29 15.628 16.29H56.4c9.344 0 15.6-6.56 15.6-16.29V33.188c0-9.757-6.256-16.317-15.6-16.317z" fill="#556AF1" fill-opacity=".35"/><path d="M56.4 16.499H32.501c-4.762 0-8.77 1.673-11.586 4.614-2.816 2.94-4.414 7.116-4.414 12.075v22.519c0 4.946 1.598 9.115 4.414 12.05 2.816 2.938 6.824 4.612 11.586 4.612H56.4c4.762 0 8.764-1.674 11.573-4.612 2.809-2.935 4.4-7.105 4.4-12.05V33.188c0-4.959-1.591-9.135-4.4-12.075-2.81-2.94-6.81-4.614-11.573-4.614z" stroke="url(#c)" stroke-width=".745" stroke-linecap="round" stroke-linejoin="round"/></g><g filter="url(#d)"><path d="M74.923 12.824a4.05 4.05 0 1 0 0 8.1 4.05 4.05 0 0 0 0-8.1z" fill="url(#e)"/></g><g filter="url(#f)"><path d="m58.859 39.555-7.877 10.164a2.036 2.036 0 0 1-2.908.363l-7.562-5.929-6.81 8.81a2.038 2.038 0 0 1-3.757-1.187c-.005-.457.15-.901.436-1.258l8.143-10.503a2.037 2.037 0 0 1 2.884-.388l7.562 5.954 6.641-8.543a2.012 2.012 0 0 1 2.86-.411 2.08 2.08 0 0 1 .388 2.88v.048z" fill="url(#g)"/><path d="m50.864 49.628-.001.002a1.888 1.888 0 0 1-2.696.336h-.001l-7.562-5.93-.118-.093-.092.119-6.81 8.81-.005.005-.004.006a1.888 1.888 0 0 1-3.482-1.099l-.148-.008h.149a1.833 1.833 0 0 1 .403-1.165l.002-.002 8.143-10.503.002-.002a1.888 1.888 0 0 1 2.673-.359l7.561 5.953.118.093.092-.118 6.64-8.544h.001l.003-.004a1.863 1.863 0 0 1 2.648-.38 1.93 1.93 0 0 1 .36 2.672l-.03.04v.047l-7.846 10.124z" stroke="url(#h)" stroke-width=".298"/></g><defs><linearGradient id="c" x1="25.649" y1="23.293" x2="60.813" y2="66.845" gradientUnits="userSpaceOnUse"><stop stop-color="#fff" stop-opacity=".25"/><stop offset="1" stop-color="#fff" stop-opacity="0"/></linearGradient><linearGradient id="e" x1="75.519" y1="17.417" x2="68.402" y2="20.877" gradientUnits="userSpaceOnUse"><stop stop-color="#9296FF"/><stop offset="1" stop-color="#173DE3"/></linearGradient><linearGradient id="g" x1="57.191" y1="39.404" x2="24.582" y2="41.166" gradientUnits="userSpaceOnUse"><stop stop-color="#E8F5FF"/><stop offset="1" stop-color="#E8F5FF" stop-opacity=".2"/></linearGradient><linearGradient id="h" x1="34.611" y1="38.27" x2="43.712" y2="56.941" gradientUnits="userSpaceOnUse"><stop stop-color="#fff" stop-opacity=".25"/><stop offset="1" stop-color="#fff" stop-opacity="0"/></linearGradient><filter id="a" x=".965" y="1.643" width="65.59" height="64.227" filterUnits="userSpaceOnUse" color-interpolation-filters="sRGB"><feFlood flood-opacity="0" result="BackgroundImageFix"/><feBlend in="SourceGraphic" in2="BackgroundImageFix" result="shape"/><feGaussianBlur stdDeviation="6.333" result="effect1_foregroundBlur"/></filter><filter id="b" x="-1.752" y="-1.756" width="92.377" height="92.377" filterUnits="userSpaceOnUse" color-interpolation-filters="sRGB"><feFlood flood-opacity="0" result="BackgroundImageFix"/><feGaussianBlur in="BackgroundImage" stdDeviation="8.941"/><feComposite in2="SourceAlpha" operator="in" result="effect1_backgroundBlur"/><feBlend in="SourceGraphic" in2="effect1_backgroundBlur" result="shape"/></filter><filter id="d" x="59.697" y="1.649" width="30.451" height="30.451" filterUnits="userSpaceOnUse" color-interpolation-filters="sRGB"><feFlood flood-opacity="0" result="BackgroundImageFix"/><feGaussianBlur in="BackgroundImage" stdDeviation="5.588"/><feComposite in2="SourceAlpha" operator="in" result="effect1_backgroundBlur"/><feBlend in="SourceGraphic" in2="effect1_backgroundBlur" result="shape"/></filter><filter id="f" x="18.766" y="25.031" width="51.68" height="40.058" filterUnits="userSpaceOnUse" color-interpolation-filters="sRGB"><feFlood flood-opacity="0" result="BackgroundImageFix"/><feGaussianBlur in="BackgroundImage" stdDeviation="5.588"/><feComposite in2="SourceAlpha" operator="in" result="effect1_backgroundBlur"/><feColorMatrix in="SourceAlpha" values="0 0 0 0 0 0 0 0 0 0 0 0 0 0 0 0 0 0 127 0"/><feOffset dx="3.725" dy="3.725"/><feGaussianBlur stdDeviation="3.725"/><feColorMatrix values="0 0 0 0 0.572549 0 0 0 0 0.588235 0 0 0 0 1 0 0 0 0.5 0"/><feBlend in2="effect1_backgroundBlur" result="effect2_dropShadow"/><feBlend in="SourceGraphic" in2="effect2_dropShadow" result="shape"/></filter></defs></svg>
